X:5324
T:Quadrill. CJF.078
O:england
M:6/8
L:1/8
Q:100
S: C.J.Fox MS, 1829/33, Beverley,E.Yorks.
R:Quadrille
A:East Yorkshire
B:Kidson Coll.Mitchell Lib.M1805
N:On title line is "From Watson's Book - PJH. ÿ
K:C
G|"pia"e>dc dAB|c2AG2E|F>GA Gce|eddd2G|"for"\
e>dc dAB|c2AG2E|F>GA Gce|ed" Fine"Bc2h||:g|
dBdG2g|eceG2g|f2fe2e|eddd2g|dBdG2g|eceA2a|g^fe def|g3-g2:|]


